assets/Woman rowing boat/Medium/Flat/woman_rowing_boat_flat_medium.svg

<svg width="32" height="32" viewBox="0 0 32 32" fill="none" xmlns="http://www.w3.org/2000/svg">
<path d="M14.74 6.62073L13.54 7.90073L14.84 9.13073L16.04 7.83073L14.74 6.62073Z" fill="#B87A66"/>
<path d="M12.5501 8.10076C12.8101 7.92076 13.2301 7.72076 13.7201 7.78076C14.9601 7.95076 15.2501 8.74076 15.2501 8.74076C15.2501 8.74076 15.6701 9.71076 14.5701 10.9608C14.5601 10.9608 13.8101 12.2008 13.5801 13.8208H11.3654L9.6001 12.6508C10.3801 9.98076 12.1801 8.25076 12.5501 8.10076Z" fill="#8B62BF"/>
<path d="M15.4 14.5408L14.24 16.9008C13.99 17.4308 13.32 17.6108 12.84 17.2708L10.41 15.5608C10.41 15.5608 9.37998 14.7808 9.35998 14.0608C9.33998 13.3408 9.59998 12.6508 9.59998 12.6508L13.53 13.8008" fill="#9B9B9B"/>
<path d="M16.6091 3.92758L17.4591 4.20758C18.1791 4.43758 18.5691 5.21758 18.3291 5.93758L18.2091 6.29758C18.1691 6.40758 18.1691 6.53758 18.1891 6.65758C18.2691 7.00758 18.3391 7.06758 18.2991 7.20758C18.2391 7.43758 18.0091 7.42758 17.8991 7.40758C17.8691 7.39758 17.8391 7.41758 17.8291 7.44758C17.5391 8.24758 17.2091 8.77758 16.2391 8.45758C15.6491 8.26758 14.8191 7.66758 14.7791 6.88758L14.8391 5.87758L14.8891 4.79758C15.1191 4.08758 15.8991 3.68758 16.6091 3.92758Z" fill="#C68D7B"/>
<path d="M17.0291 7.16602C17.0797 7.16602 17.1207 7.20703 17.1207 7.25762C17.1207 7.42556 17.2582 7.56602 17.4391 7.56602C17.4897 7.56602 17.5307 7.60703 17.5307 7.65762C17.5307 7.70821 17.4897 7.74922 17.4391 7.74922C17.16 7.74922 16.9375 7.52967 16.9375 7.25762C16.9375 7.20703 16.9785 7.16602 17.0291 7.16602Z" fill="#990838"/>
<path d="M17.267 5.63051C17.2488 5.57964 17.2753 5.52368 17.3262 5.50551L17.3282 5.50479L17.3319 5.50356L17.3441 5.49978C17.3543 5.49678 17.3687 5.49291 17.3866 5.4889C17.4224 5.48087 17.4731 5.47219 17.5348 5.46872C17.6583 5.46178 17.8272 5.4757 18.0095 5.55858C18.0587 5.58093 18.0804 5.63891 18.0581 5.68808C18.0357 5.73726 17.9778 5.759 17.9286 5.73665C17.7809 5.66953 17.6448 5.65845 17.5458 5.66401C17.4963 5.66679 17.4563 5.67373 17.4293 5.67977C17.3362 5.69238 17.2823 5.65218 17.267 5.63051Z" fill="#593B39"/>
<path d="M17.8991 6.23763C17.8991 6.23763 17.8291 5.91763 17.4791 5.86763C17.3391 5.84763 17.2291 5.88763 17.1391 5.93763C17.0691 5.97763 17.0491 6.06763 17.0991 6.12763L17.2791 6.36763L17.8991 6.23763Z" fill="black"/>
<path d="M17.7691 6.55762C17.8191 6.57762 17.8791 6.53762 17.8991 6.47762C17.8991 6.47762 17.8991 6.47762 17.8991 6.46762C17.9791 6.22762 17.8191 6.02762 17.6191 5.96762C17.4191 5.90762 17.1691 5.96762 17.0991 6.20762C17.0991 6.20762 17.0991 6.20762 17.0991 6.21762C17.0691 6.27762 17.0991 6.33762 17.1491 6.35762L17.7691 6.55762Z" fill="white"/>
<path d="M17.8392 6.58758C17.8592 6.55758 17.8792 6.51758 17.8892 6.47758C17.9492 6.30758 17.8792 6.12758 17.7492 6.08758C17.6092 6.04758 17.4592 6.14758 17.3992 6.31758C17.3892 6.35758 17.3792 6.39758 17.3792 6.43758L17.8392 6.58758Z" fill="#7D4533"/>
<path d="M17.7591 6.5576C17.7891 6.5376 17.8091 6.4976 17.8291 6.4576C17.8591 6.3576 17.8291 6.2576 17.7491 6.2276C17.6691 6.1976 17.5791 6.2576 17.5491 6.3576C17.5391 6.3976 17.5391 6.4376 17.5391 6.4776L17.7591 6.5576Z" fill="black"/>
<path d="M17.8598 6.33573C17.8701 6.30424 17.8572 6.27174 17.831 6.26315C17.8047 6.25455 17.7751 6.27311 17.7648 6.3046C17.7545 6.33609 17.7674 6.36859 17.7936 6.37718C17.8199 6.38578 17.8495 6.36722 17.8598 6.33573Z" fill="white"/>
<path d="M18.9992 4.54761C19.0192 4.06761 18.7092 3.48761 18.2192 3.50761C17.6792 3.50761 17.5392 3.60761 17.0092 3.24761C16.2092 2.69761 14.8692 2.41761 14.3792 3.82761C14.2092 4.31761 14.1292 4.70761 14.0992 5.00761C14.0792 5.25761 13.9192 5.48761 13.6792 5.57761C13.6192 5.59761 13.5692 5.62761 13.5092 5.66761C13.2192 5.84761 13.0192 6.14761 12.9692 6.48761C12.8692 7.21761 13.3892 7.78761 14.0292 7.85761C14.0692 7.85761 14.0992 7.86761 14.1392 7.86761C14.1692 7.86761 14.1992 7.86761 14.2292 7.86761C14.9392 7.87761 15.5492 7.40761 15.7492 6.74761L16.1592 5.45761C16.2192 5.27761 16.3292 5.12761 16.4892 5.01761C16.6092 4.93761 16.7692 4.90761 16.9192 4.92761C17.0392 4.94761 17.1592 4.99761 17.2492 5.08761C17.3992 5.22761 17.5892 5.32761 17.8092 5.37761C17.9292 5.39761 18.0392 5.39761 18.1492 5.38761C18.2792 5.37761 18.3892 5.34761 18.4792 5.30761C18.7692 5.17761 18.9792 4.88761 18.9992 4.54761Z" fill="#593B39"/>
<path d="M26.9401 16.5907L16.3559 15.9127L5.59009 16.5907L10.4301 24.6307H26.9801L26.9401 16.5907Z" fill="#86D72F"/>
<path d="M26.81 14.4507H5.01995C4.42995 14.4507 3.94995 14.9307 3.94995 15.5207C3.94995 16.1107 4.42995 16.5907 5.01995 16.5907H26.82C27.41 16.5907 27.89 16.1107 27.89 15.5207C27.88 14.9307 27.4 14.4507 26.81 14.4507Z" fill="#44911B"/>
<path d="M21.13 11.6207C21.06 11.4607 20.88 11.3907 20.73 11.4607L19.99 11.7707L20.23 12.3407L20.97 12.0307C21.12 11.9607 21.2 11.7807 21.13 11.6207Z" fill="#A9715F"/>
<path d="M30 19.4707C28.25 19.4707 28.25 20.5107 26.5 20.5107C24.75 20.5107 24.75 19.4707 23 19.4707C21.25 19.4707 21.25 20.5107 19.5 20.5107C17.75 20.5107 17.75 19.4707 16 19.4707C14.25 19.4707 14.25 20.5107 12.5 20.5107C10.75 20.5107 10.75 19.4707 9 19.4707C7.25 19.4707 7.25 20.5107 5.5 20.5107C3.75 20.5107 3.75 19.4707 2 19.4707V28.9707H29.97L30 19.4707Z" fill="#0084CE"/>
<path d="M21.3301 11.1408C21.5701 10.9108 21.9501 10.9108 22.1801 11.1408C22.4101 11.3708 22.4101 11.7508 22.1801 11.9908L14.3954 19.7755C14.7398 20.4733 14.6214 21.3415 14.0401 21.9308L11.6001 24.3708C10.8701 25.1008 9.68009 25.1008 8.95009 24.3708C8.22009 23.6408 8.22009 22.4508 8.95009 21.7208L11.3901 19.2808C11.9715 18.6993 12.8448 18.581 13.545 18.9258L21.3301 11.1408Z" fill="#F3C07B"/>
<path d="M30 23.0807C28.25 23.0807 28.25 24.1207 26.5 24.1207C24.75 24.1207 24.75 23.0807 23 23.0807C21.25 23.0807 21.25 24.1207 19.5 24.1207C17.75 24.1207 17.75 23.0807 16 23.0807C14.25 23.0807 14.25 24.1207 12.5 24.1207C10.75 24.1207 10.75 23.0807 9 23.0807C7.25 23.0807 7.25 24.1207 5.5 24.1207C3.75 24.1207 3.75 23.0807 2 23.0807V28.9807H29.97L30 23.0807Z" fill="#26C9FC"/>
<path d="M21.83 12.6207C21.83 12.1407 21.44 11.7507 20.96 11.7507L17.15 11.7707C16.94 11.7707 16.74 11.6607 16.63 11.4807L16.62 11.4607L15.21 9.20068L13.73 10.1107L15.13 12.3707C15.24 12.5607 15.38 12.7307 15.54 12.8807C15.98 13.2907 16.56 13.5207 17.18 13.5107L20.96 13.4907C21.44 13.4907 21.83 13.1007 21.83 12.6207Z" fill="#C68D7B"/>
<path d="M13.4201 8.39077C12.9201 8.70077 12.7701 9.36077 13.0801 9.87077L13.9201 11.2308C14.1101 11.5508 14.5301 11.6508 14.8501 11.4508L16.1301 10.6508L15.0201 8.71077C14.7201 8.18077 14.0301 8.01077 13.5201 8.33077L13.4201 8.39077Z" fill="#A17FD5"/>
</svg>

<svg xmlns="http://www.w3.org/2000/svg" width="32" height="32" fill="none"><path fill="#B87A66" d="m14.74 6.62-1.2 1.28 1.3 1.23 1.2-1.3-1.3-1.21Z"/><path fill="#8B62BF" d="M12.55 8.1c.26-.18.68-.38 1.17-.32 1.24.17 1.53.96 1.53.96s.42.97-.68 2.22c-.01 0-.76 1.24-.99 2.86h-2.215L9.6 12.65c.78-2.67 2.58-4.4 2.95-4.55Z"/><path fill="#9B9B9B" d="m15.4 14.54-1.16 2.36c-.25.53-.92.71-1.4.37l-2.43-1.71s-1.03-.78-1.05-1.5c-.02-.72.24-1.41.24-1.41l3.93 1.15"/><path fill="#C68D7B" d="m16.61 3.928.85.28c.72.23 1.11 1.01.87 1.73l-.12.36c-.04.11-.04.24-.02.36.08.35.15.41.11.55-.06.23-.29.22-.4.2-.03-.01-.06.01-.07.04-.29.8-.62 1.33-1.59 1.01-.59-.19-1.42-.79-1.46-1.57l.06-1.01.05-1.08c.23-.71 1.01-1.11 1.72-.87Z"/><path fill="#990838" d="M17.03 7.166c.05 0 .09.041.09.092 0 .168.138.308.32.308a.092.092 0 1 1 0 .183.495.495 0 0 1-.503-.491c0-.051.041-.092.092-.092Z"/><path fill="#593B39" d="M17.267 5.63a.098.098 0 0 1 .06-.124l.001-.001.004-.001.012-.004a.917.917 0 0 1 .19-.031c.124-.007.293.007.476.09a.098.098 0 0 1-.081.178.813.813 0 0 0-.5-.057c-.093.012-.147-.028-.162-.05Z"/><path fill="#000" d="M17.9 6.238s-.07-.32-.42-.37a.523.523 0 0 0-.34.07c-.07.04-.09.13-.04.19l.18.24.62-.13Z"/><path fill="#fff" d="M17.77 6.558c.05.02.11-.02.13-.08v-.01c.08-.24-.08-.44-.28-.5s-.45 0-.52.24v.01a.1.1 0 0 0 .05.14l.62.2Z"/><path fill="#7D4533" d="M17.84 6.588a.37.37 0 0 0 .05-.11c.06-.17-.01-.35-.14-.39-.14-.04-.29.06-.35.23-.01.04-.02.08-.02.12l.46.15Z"/><path fill="#000" d="M17.76 6.558c.03-.02.05-.06.07-.1.03-.1 0-.2-.08-.23s-.17.03-.2.13c-.01.04-.01.08-.01.12l.22.08Z"/><path fill="#fff" d="M17.86 6.336c.01-.032-.003-.064-.029-.073-.026-.008-.056.01-.066.042-.01.031.002.064.029.072.026.009.055-.01.066-.041Z"/><path fill="#593B39" d="M19 4.548c.02-.48-.29-1.06-.78-1.04-.54 0-.68.1-1.21-.26-.8-.55-2.14-.83-2.63.58-.17.49-.25.88-.28 1.18-.02.25-.18.48-.42.57a.7.7 0 0 0-.17.09c-.29.18-.49.48-.54.82-.1.73.42 1.3 1.06 1.37.04 0 .07.01.11.01h.09c.71.01 1.32-.46 1.52-1.12l.41-1.29a.85.85 0 0 1 .33-.44c.12-.08.28-.11.43-.09.12.02.24.07.33.16.15.14.34.24.56.29a1.304 1.304 0 0 0 .67-.07c.29-.13.5-.42.52-.76Z"/><path fill="#86D72F" d="m26.94 16.59-10.584-.677-10.766.678 4.84 8.04h16.55l-.04-8.04Z"/><path fill="#44911B" d="M26.81 14.45H5.02a1.071 1.071 0 0 0 0 2.14h21.8c.59 0 1.07-.48 1.07-1.07-.01-.59-.49-1.07-1.08-1.07Z"/><path fill="#A9715F" d="M21.13 11.62a.3.3 0 0 0-.4-.16l-.74.31.24.57.74-.31c.15-.07.23-.25.16-.41Z"/><path fill="#0084CE" d="M30 19.47c-1.75 0-1.75 1.04-3.5 1.04s-1.75-1.04-3.5-1.04-1.75 1.04-3.5 1.04-1.75-1.04-3.5-1.04-1.75 1.04-3.5 1.04-1.75-1.04-3.5-1.04-1.75 1.04-3.5 1.04-1.75-1.04-3.5-1.04v9.5h27.97l.03-9.5Z"/><path fill="#F3C07B" d="M21.33 11.14a.61.61 0 0 1 .85 0c.23.23.23.61 0 .85l-7.785 7.786a1.883 1.883 0 0 1-.355 2.155l-2.44 2.44c-.73.73-1.92.73-2.65 0s-.73-1.92 0-2.65l2.44-2.44a1.878 1.878 0 0 1 2.155-.355l7.785-7.785Z"/><path fill="#26C9FC" d="M30 23.08c-1.75 0-1.75 1.04-3.5 1.04s-1.75-1.04-3.5-1.04-1.75 1.04-3.5 1.04-1.75-1.04-3.5-1.04-1.75 1.04-3.5 1.04-1.75-1.04-3.5-1.04-1.75 1.04-3.5 1.04-1.75-1.04-3.5-1.04v5.9h27.97l.03-5.9Z"/><path fill="#C68D7B" d="M21.83 12.62a.87.87 0 0 0-.87-.87l-3.81.02c-.21 0-.41-.11-.52-.29l-.01-.02-1.41-2.26-1.48.91 1.4 2.26a2.339 2.339 0 0 0 2.05 1.14l3.78-.02c.48 0 .87-.39.87-.87Z"/><path fill="#A17FD5" d="M13.42 8.39c-.5.31-.65.97-.34 1.48l.84 1.36c.19.32.61.42.93.22l1.28-.8-1.11-1.94c-.3-.53-.99-.7-1.5-.38l-.1.06Z"/></svg>
